phone.svg

<svg width="40" height="40" viewBox="0 0 40 40" fill="none" xmlns="http://www.w3.org/2000/svg">
<circle cx="20" cy="20" r="20" fill="#862633"/>
<path d="M25.5724 7.5H14.4276C13.361 7.5 12.5 8.35708 12.5 9.41217V31.8397C12.5 32.8939 13.361 33.75 14.4276 33.75H25.5724C26.6371 33.75 27.5 32.8939 27.5 31.8397V9.41217C27.5 8.35708 26.6371 7.5 25.5724 7.5ZM17.25 8.66127H22.7519C22.8909 8.66127 23.0039 8.86693 23.0039 9.12137C23.0039 9.37582 22.8909 9.58244 22.7519 9.58244H17.25C17.11 9.58244 16.999 9.37582 16.999 9.12137C16.999 8.86693 17.11 8.66127 17.25 8.66127ZM20.001 31.8627C19.3224 31.8627 18.7703 31.3155 18.7703 30.6421C18.7703 29.9687 19.3224 29.4235 20.001 29.4235C20.6776 29.4235 21.2297 29.9687 21.2297 30.6421C21.2297 31.3155 20.6776 31.8627 20.001 31.8627ZM26.056 27.6835H13.945V10.7265H26.056V27.6835Z" fill="#FCF6EA"/>
</svg>

<svg width="40" height="40" fill="none" xmlns="http://www.w3.org/2000/svg"><circle cx="20" cy="20" r="20" fill="#862633"/><path d="M25.572 7.5H14.428A1.92 1.92 0 0012.5 9.412V31.84c0 1.054.861 1.91 1.928 1.91h11.144a1.92 1.92 0 001.928-1.91V9.412A1.92 1.92 0 0025.572 7.5zM17.25 8.661h5.502c.139 0 .252.206.252.46 0 .255-.113.461-.252.461H17.25c-.14 0-.251-.206-.251-.46 0-.255.111-.46.251-.46zm2.751 23.202c-.679 0-1.23-.547-1.23-1.22 0-.674.551-1.22 1.23-1.22.677 0 1.229.546 1.229 1.22 0 .672-.552 1.22-1.229 1.22zm6.055-4.18H13.945V10.726h12.111v16.957z" fill="#FCF6EA"/></svg>
